X:013
T:When Cloe
M:3/4
L:1/8
K:G
GG | G2 D2 BB | B2 G2 Bc | d2 c2 B2 | A4 Bc | 
d2 A2 AB | A2 D2 E2 | D6- | D4 GG | 
G2 D2 BB | B2 G2 Bc | d2 c2 B2 | A4 Bc | 
d2 A2 AB | A2 D2 E2 | G3 FGA | G4 || 
GA | F2 AFAd | A2 G2 F2 | E2 c2 B2 | A4 Bc | 
d2 A2 AB | A2 D2 E2 | G3 FGA | G4 GA | 
F2 AFAd | A2 G2 F2 | E2 c2 B2 | A4 Bc | 
d2 A2 AB | A2 D2 E2 | G3 FGA | G4 || 

